X:1
T:When the air sings of summer
T:When the air sings of summer
T:from "The Old Maid and the Thief"
T:Gian Carlo Menotti
C:Gian Carlo Menotti
%%score 1 { ( 2 3 ) | ( 4 5 6 ) }
L:1/8
Q:1/4=71
M:5/4
K:F
V:1 bass nm="Violoncello"
V:2 treble nm="Piano"
V:3 treble 
V:4 bass 
V:5 bass 
V:6 bass 
V:1
"^Andante calmo, ma senza trascinare""^Bob:" z10 |!mp! (F,G, F,2 F,E, D,A,, A,B, | %2
w: |When the air sings of sum- mer, I must|
[M:4/4] C2 CB, G,4) |[M:5/4]"^pochiss. riten." (D4 C/B,/A,/G,/"^a tempo" A,4) | %4
w: wan- der a- gain.|Sweet land- lord is the sky,|
 ((G,A,) B,2 A,G, ^F,4) |[M:4/4] .C.C .C2 .B,.B,.A,.A, |[M:5/4] .C.C .C2 .B,.B,"^poco rit." A,4 | %7
w: rich _ house is the plain,|and to live is to wan- der|through the sun and the rain.|
"^a tempo" (F,G, F,2 F,E, D,A,, A,B, |[M:4/4] C2 CA, D4- |[M:5/4] D4) z4 z2 | %10
w: When the air sings of sum- mer, I must|wan- der a- gain.|_|
!mp! A,A, A,2 G,A, ^F,F, F,2 | DD D2 C_B, A,B, C2 |[M:4/4] B,C D2 A,4 | %13
w: First you wan- der in youth and joy|then you'll wan- der to still the fears|in an old heart.|
[M:5/4]!f! DD D2 CD =B,B, B,2 | _EE E2 DC =B,C D2 | CC CC _B,_A,"^rall." G,4 | %16
w: First you wan- der to find your love,|then you'll wan- der to hide your tears,|for a wand'- rer must de- part.|
!p! (F,G, F,2 F,E, D,A,, A,B, |[M:4/4] C2 CB, G,4) |[M:5/4] (D3 C (3B,A,G, A,4) | %19
w: When a man owns a house he is a|bird ina a cage|whose cap- tiv- i- ty pain|
 z (A, B,2 A,G,[Q:1/4=71]"^rit." ^F,4) || %20
w: is sweet- en'd with age.|
[M:6/4]!ff![Q:1/4=50]"^Largamente" (!fermata!=F4- F3[Q:1/4=52]"^Lento" E _D2 CB, | %21
w: Ah! _ the sharp joys of|
[M:3/4] (A,B,) C4) ||[M:5/4][Q:1/4=71]"^Andante"!pp! .C.C .C2 .B,.B, A,4 | %23
w: free- * dom|is my loss and my gain|
"^a tempo"!mf! (F,G, F,2 F,E, D,A,,)"^poco allarg." (A,B, |[M:4/4] C2 CA, D4- | %25
w: When the air sings of sum- mer, I must|wan- der a- gain.|
[M:5/4]"^a tempo" D6-"^molto rall." D4) | !fermata!z10 |] %27
w: _ _||
V:2
!p! z2 C8 |!mp! ([A,F][CG] [A,F]2 FE DA,AB |[M:4/4] c2 cB [CG]4) | %3
[M:5/4] (d4 c/B/A/G/ !tenuto!A!tenuto!c !tenuto!c2) | %4
 ([B,G][DA] [GB]2 [^FA][EG] !tenuto![DF]!tenuto![A,A] !tenuto![A,A]2) | %5
[M:4/4]!mp! (.[Ac].[EG] .[ce]2 .[Bd].[DG].[Ac].[CF] | %6
[M:5/4] .A.[EG] .[ce]2 .[Bd].[DG] .[A^c].[^CE] C2) |!p! ([A,F][=CG] [A,F]2 FE DA,AB | %8
[M:4/4]!<(! c2 cA!<)! [DFAd]4) | %9
[M:5/4]!f! (!tenuto![Af]!tenuto![Af] !tenuto![Af]2!>(! !tenuto![Ae]!tenuto![Ae]) d4!>)! | %10
!p! (AA A2 GA [D^F][A,A] [A,A]2) | (AB _B2 [CGc][^C^c] [^FA][Dd] [Dd]2 | %12
[M:4/4] [GB][Dd] [Dd]2 [^FA][Dd] [Dd]2) |[M:5/4]!f! (d'd' d'2 c'd' [_e^f=b]!>(![dd'] [dd']2)!>)! | %14
 (d_e e2 [Fcf][^F^f] [=Bd][Gg] [Gg]2) | (g_a a2 [_Bf_b][=B=b] [=eg]!>(![cc'] [cc']2)!>)! | %16
!p! ([A,F][CG] [A,F]2 FE DA, AB |[M:4/4] c2 cB G4) | %18
[M:5/4] (d3 c (3BAG !tenuto!A!tenuto!c !tenuto!c2) | %19
 ([B,G][DA] [GB]2!>(! [^FA][EG]!>)! !tenuto![DF]!tenuto![A,A] !tenuto![A,A]2) || %20
[M:6/4]!ff! (!fermata!f4- f3 =e _d2 [_A=c][GB] |[M:3/4] [F=A]!>(![GB] [Ac]4)!>)! || %22
[M:5/4]!pp! (.[Ac].[EG] .[ce]2 .[Bd].[DG] .[A^c].[^CE] C2) | %23
!<(! ([A,F][CG] [FA]2 [FA]!<)![Ec] !arpeggio![DFAd]4 | %24
[M:4/4]!f!!<(! !arpeggio![EAce]4 !arpeggio![DFAd]4)!<)! | %25
[M:5/4]!ff! (!tenuto![faf']!tenuto![faf'] !tenuto![faf']2!>(! !tenuto![eae']!tenuto![eae']!>)! (a2 g2)) | %26
"^lunga" !arpeggio!!fermata![^F,A,D^F]8 x2 |] %27
V:3
 x2 (G,2 A,2 A,F, G,2) | x4 A,2 F,4 |[M:4/4] [CE]4 x4 |[M:5/4] F4 D2 E2 D2 | x10 |[M:4/4] x8 | %6
[M:5/4] x8 A,G, | x4 A,2 F,4 |[M:4/4] x8 |[M:5/4] x6 (A2 G2) | [A,^F]2 [=B,-F]2 [B,E]2 x4 | %11
 _B,4 x6 |[M:4/4] x8 |[M:5/4] [dg=b]2 [egb]2 [^fa]2 x4 | _E4 x6 | _A4 x6 | x4 A,2 F,4 | %17
[M:4/4] [CE]4 C4 |[M:5/4] F4 D2 !tenuto!E!tenuto!D !tenuto!D2 | x10 ||[M:6/4] [B_d]4 _c4 B2 x2 | %21
[M:3/4] x6 ||[M:5/4] x8 (A,G,) | x10 |[M:4/4] x8 |[M:5/4] x6 [dd']4 | x10 |] %27
V:4
 (.C,2 .C,2 .C,2 .C,2 .C,2) | (.C,2 .C,2 .C,2 .C,2 .C,2) |[M:4/4] .E,2 .E,2 [C,E,]4 | %3
[M:5/4] (C2 B,2 A,/G,/F,/E,/ E,2 D,2) | D,2 E,2 ^C,2 B,,2 A,,2 |[M:4/4] =C,2 C,2 C,2 C,2 | %6
[M:5/4] C,2 C,2 C,2 E,2 E,2 | C,2 C,2 C,2 D,2 D,2 |[M:4/4] E,2 E,2 [A,,D,]4 | %9
[M:5/4] (!tenuto![DF]!tenuto![DF] !tenuto![DF]2 !tenuto![CE]!tenuto![CE]) [B,D]4 | %10
 (A,,2 =B,,2 ^C,2 _B,,2 A,,2) | D,2 _E,2 =E,2 ^F,4 |[M:4/4] G,4 ^F,4 | %13
[M:5/4] ([D,G,=B,]2 [E,G,B,]2 [^F,A,C]2 [_E,F,B,]2 [D,G,B,]2) | (G,2 _A,2 =A,2 =B,C D2) | %15
 C2 _D2 =D2 E4 | C,2 C,2 C,2 D,2 D,2 |[M:4/4] E,2 E,2 E,4 |[M:5/4] (C2 B,A, (3G,F,E, E,2 D,2) | %19
 (D,2 E,2 ^C,2 _B,,2 A,,2) ||[M:6/4] !fermata!G4 _A4 G2 =E2 |[M:3/4] _D2 C4 || %22
[M:5/4] (.C,2 .C,2 .C,2 .E,2 .E,2) | .=C,2 .C,2 .C,2 !arpeggio![D,,A,,D,A,]4 | %24
[M:4/4] !arpeggio![A,,E,A,C]4 !arpeggio![D,,A,,D,F,A,]4 | %25
[M:5/4][K:treble] (!tenuto![DFA]!tenuto![DFA] !tenuto![DFA]2 !tenuto![CEA]!tenuto![CEA] (A2 G2)) | %26
[K:bass] !arpeggio![D,,A,,]8 x2 |] %27
V:5
 F,,8- F,,2 | F,,6 [D,,A,,]4 |[M:4/4] A,,4 x4 |[M:5/4] ([B,,F,]4 B,,2 F,,4) | (G,,6 D,,4) | %5
[M:4/4] (=F,,6 F,,2- |[M:5/4] F,,6 A,,4) | (F,,6 [D,,A,,]4 |[M:4/4] A,,4 D,,4) |[M:5/4] x10 | %10
 D,,6 D,,4 | (G,,6 A,,B,, C,2 |[M:4/4] B,,C, D,2 A,,4) |[M:5/4]{/G,,} G,,6{/G,,} G,,4 | C,6 D,4 | %15
 (F,6 G,4) | (F,,6 [D,,A,,]4 |[M:4/4] A,,4 C,4) |[M:5/4] [B,,F,]6 F,,4 | G,,6 D,,4 || %20
[M:6/4] (!arpeggio![B,,,_D,,=F,,G,,B,,_D,=F,G,]12 |[M:3/4] F,6) ||[M:5/4] F,,6 A,,4 | F,,6 x4 | %24
[M:4/4] x8 |[M:5/4][K:treble] x6 [B,D]4 |[K:bass] x10 |] %27
V:6
 x10 | x10 |[M:4/4] x8 |[M:5/4] x10 | x10 |[M:4/4] x8 |[M:5/4] x10 | x10 |[M:4/4] x8 |[M:5/4] x10 | %10
 x10 | x10 |[M:4/4] x8 |[M:5/4] x10 | x10 | x10 | x10 |[M:4/4] x8 |[M:5/4] x10 | x10 || %20
[M:6/4] [B,_D]8- [B,D]4 |[M:3/4] x6 ||[M:5/4] x10 | x10 |[M:4/4] x8 |[M:5/4][K:treble] x10 | %26
[K:bass] x10 |] %27

